!!!!SEGMENT: Wil3024-Jayme_par_amours.krn
!!!id: Wil3024
!!!AGN: Chanson
!!!SCT: Bernstein (1984)
!!!voices: 3
!!!COM: Adrian Willaert
!!!OTL: J'ayme par amours
**kern	**kern	**kern
*part3	*part2	*part1
*staff3	*staff2	*staff1
*I"Bassus	*I"Tenor	*I"Superius
*I'B	*I'T	*I'S
*clefF4	*clefGv2	*clefG2
*k[b-]	*k[b-]	*k[b-]
*F:	*F:	*F:
*M2/1	*M2/1	*M2/1
*met(C|)	*met(C|)	*met(C|)
=1	=1	=1
0r	0r	2.a
.	.	4a
.	.	2g
.	.	2g
=2	=2	=2
1r	2.d	2.f
.	4d	8eL
.	.	8dJ
2.A	2c	2.e
.	2c	.
4A	.	4f
=3	=3	=3
2G	2.B-y	2g
2G	.	2d
.	8AL	.
.	8GJ	.
2.F	1A	2f
.	.	2f
8EL	.	.
8DJ	.	.
=4	=4	=4
2.E	0r	2.g
4F	.	8fL
.	.	8eJ
2G	.	2d
2G	.	[2e
=5	=5	=5
2D	0r	4e]
.	.	4d
2F	.	1d
1E	.	.
.	.	2c#i
=6	=6	=6
1D	2.d	2d
.	.	2f
.	4d	.
2r	2c	2g
2F	2c	2a
=7	=7	=7
2G	2.B-y	2.d
2G	.	.
.	8AL	4e
.	8GJ	.
2D	2.A	4f
.	.	4g
[2F	.	[2a
.	4B-y	.
=8	=8	=8
4F]	2c	4a]
4G	.	4b-y
4A	2c	4cc
4F	.	4a
1G	2G	2b-y
.	2B-y	[2g
=9	=9	=9
1D	1A	2g]
.	.	2f#i
1G	[1G	2g
.	.	[2b-y
=10	=10	=10
1r	1G]	2b-]
.	.	4a
.	.	4g
4B-y	1r	[1f
4A	.	.
4B-y	.	.
4c	.	.
=11	=11	=11
2d	4B-y	0f_
.	4A	.
2d	4B-y	.
.	4c	.
4B-y	2d	.
4A	.	.
4B-y	2d	.
4c	.	.
=12	=12	=12
2d	4B-y	1f]
.	4A	.
2d	4B-y	.
.	4c	.
2r	2d	1r
[2G	2d	.
=13	=13	=13
2G]	4d	4b-y
.	4c	4a
2G	4d	4b-y
.	4e	4cc
2F	2f	2dd
[2G	2B-y	2dd
=14	=14	=14
2G]	4d	4b-y
.	4c	4a
4F	4d	4b-y
4E	4e	4cc
2.D	2f	2dd
.	2f	2dd
4E	.	.
=15	=15	=15
4F	2d	0r
4G	.	.
2.F	2d	.
.	2c	.
4E	.	.
4D	[2d	.
4C	.	.
=16	=16	=16
2BB-y	2d]	0r
1F	4c	.
.	4B-y	.
.	4A	.
.	4B-y	.
2E	[2c	.
=17	=17	=17
2F	4c]	0r
.	4B-y	.
2D	1B-y	.
1C	.	.
.	2A	.
=18	=18	=18
1BB-y	2B-y	2dd
.	2d	2dd
2r	2e	2cc
2BB-y	[2f	[2dd
=19	=19	=19
2D	2f]	2dd]
2E	4e	4cc
.	4d	4b-y
2.F	2c	4a
.	.	4b-y
.	2F	[2cc
4E	.	.
=20	=20	=20
2F	2A	4cc]
.	.	4b-y
2G	2B-y	1b-y
1F	1c	.
.	.	2a
=21	=21	=21
1r	2.B-y	2b-y
.	.	1dd
.	8AL	.
.	8GJ	.
2.A	1F	.
.	.	2cc
4A	.	.
=22	=22	=22
2G	1r	2.b-y
2G	.	.
.	.	8aL
.	.	8gJ
2.F	2r	2a
.	[2d	2f
8EL	.	.
8DJ	.	.
=23	=23	=23
2.E	2d]	2.g
.	2c	.
4F	.	8fL
.	.	8eJ
2G	2.B-y	1d
2G	.	.
.	8AL	.
.	8GJ	.
=24	=24	=24
2D	2A	2.a
2F	2.d	.
.	.	4a
1E	.	2g
.	4c	.
.	[2c	2g
=25	=25	=25
1D	2c]	2.f
.	2Bni	.
.	.	8eL
.	.	8dJ
2r	1c	2.e
[2C	.	.
.	.	4f
=26	=26	=26
4C]	1r	2g
4D	.	.
4E	.	2g
4F	.	.
2G	2.d	2d
2D	.	2f
.	4d	.
=27	=27	=27
1A	2c	1e
.	2c	.
2r	2.B-y	1d
[2D	.	.
.	8AL	.
.	8GJ	.
=28	=28	=28
4D]	2.A	2r
4E	.	.
4F	.	2a
4D	4B-y	.
2E	2c	2g
2F	2c	[2a
=29	=29	=29
1G	2G	4a]
.	.	4g
.	2B-y	1g
1D	1A	.
.	.	2f#i
=30	=30	=30
2r	1.G	0g
2C	.	.
2.E	.	.
.	[2c	.
4F	.	.
=31	=31	=31
2G	2c]	2r
2G	2B-y	2d
2C	1c	2.e
2c	.	.
.	.	4f
=32	=32	=32
2c	1r	2g
2c	.	2a
2B-y	2r	1d
4A	2G	.
4G	.	.
=33	=33	=33
2.F	2.A	0r
4G	4B-y	.
2A	2c	.
[2B-y	2d	.
=34	=34	=34
4B-]	4G	2r
4A	4A	.
1G	4B-y	2b-y
.	4G	.
.	1A	2cc
2F#i	.	2cc
=35	=35	=35
2G	1G	2b-y
2C	.	4a
.	.	4g
2.D	2r	2.f
.	2d	.
4E	.	4g
=36	=36	=36
2F	2c	2a
2G	2B-y	2.b-y
1E-X	1G	.
.	.	4a
.	.	[2g
=37	=37	=37
1D	1A	2g]
.	.	2f#i
1G	2G	4g
.	.	4a
.	2g	4b-y
.	.	4g
=38	=38	=38
2r	2g	1dd
2G	2g	.
2B-y	2f	2r
2c	4e	2cc
.	4d	.
=39	=39	=39
2A	2c	2cc
2A	2c	2cc
2G	[1d	2b-y
[2B-y	.	4a
.	.	4g
=40	=40	=40
2B-]	1d]	2.f
4A	.	.
4G	.	4g
2F	2r	4a
.	.	4g
[2G	2G	[2b-y
=41	=41	=41
2G]	2B-y	4b-]
.	.	4a
2C	2c	1g
2D	2A	.
2D	2A	2f#i
=42	=42	=42
00Gl	00Gl	00gl
==	==	==
*-	*-	*-
!!!system-decoration: [*]
!!!RDF**kern: i = editorial accidental
!!!RDF**kern: l = terminal long
!!!ENC: Benjamin Ory
!!!END: 2023/9/26
!!!EED: Benjamin Ory
!!!EEV: 2023/09/26
!!!YEC: Copyright 2023 Benjamin Ory, All Rights Reserved
!!!ONB: Translated from MusicXML on 2023/09/26
